X:1
T:Title
%%score ( 1 2 ) { 3 | 4 }
L:1/8
Q:1/4=95
M:6/8
K:Db
V:1 treble nm="Grand Piano, Soprano"
V:2 treble 
V:3 bass nm="Choir Pad, New Orleans, 87.87 D"
V:4 bass 
V:1
 [DF]2 [DA] [CG]2 [CB] | [DA]2 [Fd] ed[GB] | [Dd]2 D [DG]2 [DF] | [CE]2 [_C=D] .[=CE]3 | %4
w: By~Charles~S.~Brown,~1899 * * *||||
 [DF]2 [DA] [CG]2 [CB] | [DA]2 [Fd] ed[GB] | [Dd]2 D [DG]2 [DF] | [CF]2 [CE] .D3 | z3 z2 .F | %9
w: |||||
 [GB]2 [GA] [FA]2 [DF] | z3 z2 .F | [GB]2 [GA] .[FA]3 | [DF]2 [DA] [CG]2 [CB] | [DA]2 [Fd] ed[GB] | %14
w: |||||
 [Dd]2 D [DG]2 [DF] | [CF]2 [CE] D3- | D6 |] %17
w: |||
V:2
 x6 | z3 .G3 | x6 | x6 | x6 | z3 .G3 | x6 | x6 | [CE]2 [CF] [CG]2 C/-[CG]/ | x6 | %10
 [CE]2 [CF] [CG]2 C/-[CG]/ | x6 | x6 | z3 .G3 | x6 | x6 | x6 |] %17
V:3
 A,2 A, A,2 A, | A,2 A, B,2 D | A,2 A, B,2 A, | A,2 A, .A,3 | A,2 A, A,2 A, | A,2 A, B,2 D | %6
 A,2 A, B,2 A, | A,2 G, .F,3 | A,2 E, E,2 A, | C2 C D2 A, | A,2[K:bass] E, E,2 A, | C2 C .D3 | %12
 A,2 A, A,2 A, | A,2 A, B,2 D | A,2 A, B,2 A, | A,2 G, F,3- | F,6 |] %17
V:4
 D,2 F, E,2 G, | F,2 D, G,2 G, | F,2 F, .G,3 | A,,2 A,, .A,,3 | D,2 F, E,2 G, | F,2 D, G,2 G, | %6
 F,2 F, .G,3 | A,,2 A,, .D,3 | A,,2 A,, A,,2 A,, | A,,2 A,, D,2 D, | A,,2 A,, A,,2 A,, | %11
 A,,2 A,, .D,3 | D,2 F, E,2 G, | F,2 D, G,2 G, | F,2 F, .G,3 | A,,2 A,, D,3- | D,6 |] %17

